X:1
T:D Major Oliver Holden, 1800
T:Isaac Watts, 1706 The Comforts of a Friend 86. 86. (C. M.)
T:Edenton No copyright. Transcribed from Plain Psalmody, 1800.
%%score [ 1 2 3 ]
L:1/8
M:4/4
K:D
V:1 treble nm="Treble" snm="Tr."
V:2 treble-8 nm="Tenor" snm="T."
V:3 bass nm="Bass" snm="B."
V:1
 D2 E>D G2 F2 | E>D G>F !fermata!F2 A>B | AF EF GE DC | D4 z2 A2 | E^DEF G2 F2 | GFGA E z B2 | %6
w: ||||||
 BG Gd BA GF | G4 z4 | E2 EE A2 e>f | ed cB c2 AB/c/ | dA B A/G/ F2 E2 | !fermata!D2 z2 G2 GB | %12
w: ||||||
 GFE=c BA GF | G2 E2 A^G A c/B/ | A2 ^G2 !fermata!A2 A2 | d/c/e/c/d/B/ A/F/ D2 E2 | D4 z4 | %17
w: |||||
 e2 E/D/ E/F/ GE F/G/ F/G/ | !fermata!A2 z2 e2 Gd | c2 B2 !fermata!A2 z D | F3 A EFGE | %21
w: ||* * * But|make the last * * dear|
 DF G>F F3 A | df e d/c/ BdAG | (F>E D de/d/e/f/ d2) | B2 Ad B D/>E/ F2 | E2 D6 |] %26
w: mo- * ments * known By|well * * dis- * tin- * * guished|rays,~ _ _ _ _ _ _ _ _|_ _ _ _ _ _ _||
V:2
 F2 G>F B2 A2 | G>F E>D !fermata!D2 d2 | dA Ad A2 G2 | F4 z2 F2 | AFGA B2 A2 | A2 c2 e z Bd | %6
w: Life has a soft and|sil- * ver * thread, Nor|is * it * drawn too|long: Yet,|when * * my vas- ter|hopes per- suade, I'm *|
 dB BG Bd d2 | d4 z4 | A2 AA c2 c>d | cd ed c2 e2 | A2 d2 d2 c2 | !fermata!d2 z2 G2 GB | %12
w: wil- * ling * to * be|gone.|Fast as ye please, roll *|down * the * hill, And|haste a- way my|years; Or I can|
 GFE=c BA GF | G2 A2 cd c e/d/ | c2 B2 !fermata!c2 d2 | AF Ad F2 G2 | F4 z4 | e2 cc ee d/c/ d/e/ | %18
w: wait * * my Fa- * ther's *|will, And dwell * * be- *|neath the spheres, And|dwell * be- * neath the|spheres.|Rise glo- rious, eve- ry fu- * ture *|
 !fermata!c2 z2 c2 cd | e2 d2 !fermata!c2 z D | D3 D CDEC | D2 E2 D3 F | FdcA dfec | %23
w: sun, Gild all my|fol- lowing days; *||||
 (A>G F dc/B/c/d/ A2) | G2 F3 A d2 | c2 d6 |] %26
w: |By well dis- tin-|guished rays.|
V:3
 D,2 A,,>A,, D,2 D,2 | A,,2 A,,2 !fermata!D,2 D,2 | D,2 A,,2 A,,2 A,,2 | D,4 z2 D,2 | %4
 C,B,,A,,A,, D,2 D,2 | A,2 A,2 A, z G,2 | G,2 G,2 D,2 D,2 | G,4 z4 | E,2 C,A,, A,2 A,2 | %9
 A,2 A,2 A,2 A,2 | F,2 G,2 A,2 A,,2 | !fermata!D,2 z2 G,2 G,B, | G,F,E,=C B,A, G,F, | %13
 G,2 A,2 E,2 E,2 | E,2 E,2 !fermata!A,,2 D,2 | A,2 A,2 A,2 A,2 | D,4 z4 | A,2 A,A, A,A,A,A, | %18
 !fermata!A,2 z2 A,2 A,A, | E,2 E,2 !fermata!A,,2 z2 | z8 | z8 | z8 | z8 | D,2 D,3 F, A,2 | %25
 A,,2 D,6 |] %26

